X:1
T:Title
%%score { ( 1 3 ) | ( 2 4 ) }
L:1/8
M:4/4
K:Eb
V:1 bass nm="Grand Piano"
V:3 bass 
V:2 bass 
V:4 bass 
V:1
 z4 z2[Q:1/4=96] B,>B, | E>B, E>[K:treble]G B2 c>G | B6 z2 | F>C F>A c2 d>=B | c6 z2 | %5
 [B,DF]>[DAc] [DAc]>[DAc] [DAc]2 [B,DG]>[A,DF] |[M:3/4] E>B B>B [GB]2 |[M:1/4] [FA]>G | %8
[M:4/4] F2 B>d [=Af]>[Ae] [Ad]>c |[M:3/4] B6 |[M:1/4] B>B |[M:4/4] [Ge]6 z2 | [EGB]6 [B,GB]>[Gc] | %13
 [DA]6 z2 |[M:3/4] [EG]6 |[M:1/4] [B,FA]>[B,EG] | %16
[M:4/4] [B,DF]>[DAc] [DAc]>[DAc] [DAc]2 [B,DG]>[A,DF] | E>B B>B [GB]2 [FA]>G | %18
 F>F (3BFB (3dBd [=Af]>[EFA] | [DFB]2 z2 z2 [DAB]>[DAB] | [Ge]6 z2 | [EGB]6 [B,GB]>[Gc] | %22
 [DA]6 z2 |[M:3/4] [EG]6 |[M:1/4] [B,GB]>[B,GB] |[M:3/4] [Ge]>[Ge] e>e e2 |[M:1/4] e>e | %27
[M:9/8] e>ee- e/e/ e2- ed>c |[M:19/16] z/ z/ z e>e[Af]/-[Af]-<[Af]e/-e-<e[Ad]/ |[M:3/4] [Ge]6 |] %30
V:2
 z4 z2 B,,>B,, | E,>B,, E,>G, B,2 C>G, | z2 G,>A, B,2 C,>C, | F,>C, F,>A,[K:treble] C2 D>[=B,B] | %4
 [A,CF]2 z z/[K:bass] B,/ C2 F,>G, | A,>B,, B,,>B,, B,,2 B,,>B,, | %6
[M:3/4] [E,G,B,]>[E,G,E] [E,G,E]>[E,G,E] [E,B,]2 |[M:1/4] [E,B,]>[E,B,E] | %8
[M:4/4] [F,B,D]2 [F,DF]>[F,B,F] [F,C]>[F,C][K:treble] [F,F]>[F,EF] |[M:3/4] [B,DF]6 | %10
[M:1/4] [B,A]>[B,A] |[M:4/4][K:bass] [E,B,]2 E,>E, E,>[E,B,] [E,B,]>E, | %12
 E,>E, G,>B, E,2 E,>[E,B,] | [B,,B,]2 B,,>B,, B,,>B,, B,,>B,, |[M:3/4] E,>E, E,>E, E,2 | %15
[M:1/4] D,>E, |[M:4/4] A,>B,, B,,>B,, B,,2 B,,>B,, | %17
 [E,G,B,]>[E,G,E] [E,G,E]>[E,G,E] [E,B,]2 [D,B,]>[E,B,E] | F,>F, (3B,F,B, (3DB,D [F,C]>F, | %19
 B,,2 A,2 G,2 F,>F, | [E,B,]2 E,>E, E,>[E,B,] [E,B,]>E, | E,>E, G,>B, E,2 E,>[E,B,] | %22
 [B,,B,]2 B,,>B,, B,,>B,, B,,>B,, |[M:3/4] E,>E, E,>E, E,2 |[M:1/4] E,>E, | %25
[M:3/4] [E,E]>[E,E][K:treble] [_DEG]>[DEG] [CEA]2 |[M:1/4] [CEA]>[CEA] | %27
[M:9/8] [=B,E_G]>[B,EG][_B,EG]- [B,EG]/[B,EG]/ [=A,CF]2- [A,CF][A,EF]>[A,EF] | %28
[M:19/16] (3:2:12[B,EG]2- [B,EG]3/8 z2 z3/8 z4[K:bass] z3/4[K:treble] [F,C]-[F,C]3/16 z z3/16 z2[K:bass] z3/8 | %29
[M:3/4] [E,B,]6 |] %30
V:3
 x8 | x7/2[K:treble] x9/2 | [B,G]2 E>F G2 C>C | x8 | z2 F>G A2 [B,DA]>[B,EG] | x8 |[M:3/4] x6 | %7
[M:1/4] x2 |[M:4/4] x8 |[M:3/4] x6 |[M:1/4] x2 |[M:4/4] z2 B,>B, B,>[Gd] [Gc]>[EG] | x8 | %13
 z2 B,>B, B,>[B,DF] [DGB]>[DFA] |[M:3/4] B,>B, B,>B, B,2 |[M:1/4] x2 |[M:4/4] x8 | x8 | x8 | x8 | %20
 z2 B,>B, B,>[Gd] [Gc]>[EG] | x8 | z2 B,>B, B,>[B,DF] [DGB]>[DFA] |[M:3/4] B,>B, B,>B, B,2 | %24
[M:1/4] x2 |[M:3/4] x6 |[M:1/4] x2 |[M:9/8] x9 | %28
[M:19/16] (3:2:12B2- B3/8 z2 z3/8 z4 z3/4 [Af]-[Af]3/16 z z3/16 z2 z3/8 |[M:3/4] x6 |] %30
V:4
 x8 | x8 | E,6 z2 | x4[K:treble] x4 | z2 A,4[K:bass] z2 | x8 |[M:3/4] x6 |[M:1/4] x2 | %8
[M:4/4] x6[K:treble] x2 |[M:3/4] x6 |[M:1/4] x2 |[M:4/4][K:bass] x8 | x8 | x8 |[M:3/4] x6 | %15
[M:1/4] x2 |[M:4/4] x8 | x8 | x8 | x8 | x8 | x8 | x8 |[M:3/4] x6 |[M:1/4] x2 | %25
[M:3/4] x2[K:treble] x4 |[M:1/4] x2 |[M:9/8] x9 | %28
[M:19/16] z/ z/ z [G,B,G]>[G,B,G][K:bass][F,C]/-[F,C]-<[F,C][K:treble][B,G]/-[B,G]-<[B,G][K:bass][B,,B,]/ | %29
[M:3/4] x6 |] %30

